Obsidian-SemiLight/actions/22s/xml-node-duplicate.svg

<svg viewBox="0 0 22 22" xmlns="http://www.w3.org/2000/svg"><path d="m4 3v1 13h1 2 1v1 1h6l4-4v-1-7-1h-2v-3h-1-10zm1 1h10v2h-7v1 9h-1-2zm4 3h8v7h-3-1v1 3h-4z" fill="#4d4d4d"/></svg>

<svg xmlns="http://www.w3.org/2000/svg" viewBox="0 0 22 22">
  <defs id="defs3051">
    <style type="text/css" id="current-color-scheme">
      .ColorScheme-Text {
        color:#4d4d4d;
      }
      </style>
  </defs>
 <path 
    style="fill:currentColor;fill-opacity:1;stroke:none" 
    d="M 4 3 L 4 4 L 4 17 L 5 17 L 7 17 L 8 17 L 8 18 L 8 19 L 14 19 L 18 15 L 18 14 L 18 7 L 18 6 L 16 6 L 16 3 L 15 3 L 5 3 L 4 3 z M 5 4 L 15 4 L 15 6 L 8 6 L 8 7 L 8 16 L 7 16 L 5 16 L 5 4 z M 9 7 L 17 7 L 17 14 L 14 14 L 13 14 L 13 15 L 13 18 L 9 18 L 9 7 z "
	class="ColorScheme-Text"
    />  
</svg>
